material/.icons/material/close-network-outline.svg

<svg xmlns="http://www.w3.org/2000/svg" viewBox="0 0 24 24"><path d="M15 20a1 1 0 00-1-1h-1v-2h4a2 2 0 002-2V5a2 2 0 00-2-2H7a2 2 0 00-2 2v10a2 2 0 002 2h4v2h-1a1 1 0 00-1 1H2v2h7a1 1 0 001 1h4a1 1 0 001-1h7v-2h-7m-8-5V5h10v10H7m8.54-2.88L13.41 10l2.12-2.13-1.41-1.41L12 8.59 9.88 6.46 8.47 7.87 10.59 10l-2.12 2.13 1.41 1.41L12 11.41l2.12 2.13 1.42-1.42z"/></svg>

<?xml version="1.0" encoding="UTF-8"?><!DOCTYPE svg PUBLIC "-//W3C//DTD SVG 1.1//EN" "http://www.w3.org/Graphics/SVG/1.1/DTD/svg11.dtd"><svg xmlns="http://www.w3.org/2000/svg" xmlns:xlink="http://www.w3.org/1999/xlink" version="1.1" id="mdi-close-network-outline" width="24" height="24" viewBox="0 0 24 24"><path d="M15,20A1,1 0 0,0 14,19H13V17H17A2,2 0 0,0 19,15V5A2,2 0 0,0 17,3H7A2,2 0 0,0 5,5V15A2,2 0 0,0 7,17H11V19H10A1,1 0 0,0 9,20H2V22H9A1,1 0 0,0 10,23H14A1,1 0 0,0 15,22H22V20H15M7,15V5H17V15H7M15.54,12.12L13.41,10L15.53,7.87L14.12,6.46L12,8.59L9.88,6.46L8.47,7.87L10.59,10L8.47,12.13L9.88,13.54L12,11.41L14.12,13.54L15.54,12.12Z" /></svg>
